www/assets/icons/bus_alert.svg

<svg width="24" height="24" viewBox="0 0 24 24" xmlns="http://www.w3.org/2000/svg" fill='currentColor'><path d="M16.027 1C14.8881 0.999847 13.7664 1.27756 12.7592 1.80906C11.752 2.34056 10.8896 3.10978 10.247 4.05L10.267 4.02C9.86698 4 9.44698 4 9.02698 4C4.60698 4 1.02698 4.5 1.02698 8V18C1.02698 18.88 1.41698 19.67 2.02698 20.22V22C2.02698 22.2652 2.13233 22.5196 2.31987 22.7071C2.50741 22.8946 2.76176 23 3.02698 23H4.02698C4.29219 23 4.54655 22.8946 4.73408 22.7071C4.92162 22.5196 5.02698 22.2652 5.02698 22V21H13.027V22C13.027 22.2652 13.1323 22.5196 13.3199 22.7071C13.5074 22.8946 13.7618 23 14.027 23H15.027C15.2922 23 15.5465 22.8946 15.7341 22.7071C15.9216 22.5196 16.027 22.2652 16.027 22V20.22C16.637 19.67 17.027 18.88 17.027 18V14.92C18.7673 14.655 20.3439 13.7439 21.4425 12.3685C22.5411 10.993 23.0812 9.25407 22.9551 7.49821C22.8289 5.74235 22.0459 4.09849 20.7619 2.89418C19.4779 1.68987 17.7873 1.01356 16.027 1ZM4.52698 19C4.12915 19 3.74762 18.842 3.46632 18.5607C3.18501 18.2794 3.02698 17.8978 3.02698 17.5C3.02698 17.1022 3.18501 16.7206 3.46632 16.4393C3.74762 16.158 4.12915 16 4.52698 16C4.9248 16 5.30633 16.158 5.58764 16.4393C5.86894 16.7206 6.02698 17.1022 6.02698 17.5C6.02698 17.8978 5.86894 18.2794 5.58764 18.5607C5.30633 18.842 4.9248 19 4.52698 19ZM3.02698 13V8H9.02698C9.02698 9.96 9.83698 11.73 11.137 13H3.02698ZM13.527 19C13.1292 19 12.7476 18.842 12.4663 18.5607C12.185 18.2794 12.027 17.8978 12.027 17.5C12.027 17.1022 12.185 16.7206 12.4663 16.4393C12.7476 16.158 13.1292 16 13.527 16C13.9248 16 14.3063 16.158 14.5876 16.4393C14.8689 16.7206 15.027 17.1022 15.027 17.5C15.027 17.8978 14.8689 18.2794 14.5876 18.5607C14.3063 18.842 13.9248 19 13.527 19ZM16.027 13C14.7009 13 13.4291 12.4732 12.4914 11.5355C11.5538 10.5979 11.027 9.32608 11.027 8C11.027 6.67392 11.5538 5.40215 12.4914 4.46447C13.4291 3.52678 14.7009 3 16.027 3C17.3531 3 18.6248 3.52678 19.5625 4.46447C20.5002 5.40215 21.027 6.67392 21.027 8C21.027 9.32608 20.5002 10.5979 19.5625 11.5355C18.6248 12.4732 17.3531 13 16.027 13ZM15.027 4H17.027V9H15.027V4ZM15.027 10H17.027V12H15.027V10Z"/></svg>

<svg xmlns="http://www.w3.org/2000/svg" width="24" height="24" viewBox="0 0 24 24" fill='currentColor'><path d="M16.027 1a7 7 0 0 0-5.78 3.05l.02-.03C9.867 4 9.447 4 9.027 4c-4.42 0-8 .5-8 4v10c0 .88.39 1.67 1 2.22V22a1 1 0 0 0 1 1h1a1 1 0 0 0 1-1v-1h8v1a1 1 0 0 0 1 1h1a1 1 0 0 0 1-1v-1.78c.61-.55 1-1.34 1-2.22v-3.08a7 7 0 0 0-1-13.92m-11.5 18a1.5 1.5 0 1 1 0-3 1.5 1.5 0 0 1 0 3m-1.5-6V8h6c0 1.96.81 3.73 2.11 5zm10.5 6a1.5 1.5 0 1 1 0-3 1.5 1.5 0 0 1 0 3m2.5-6a5 5 0 1 1 0-10 5 5 0 0 1 0 10m-1-9h2v5h-2zm0 6h2v2h-2z"/></svg>
